packages/astro-components-stencil/src/icons/local-laundry-service.svg

<svg xmlns="http://www.w3.org/2000/svg" viewBox="0 0 24 24"><g xmlns="http://www.w3.org/2000/svg" id="local-laundry-service" fill-rule="nonzero">
            <path d="M9.55 16.45c-.2.2-.21.55.02.73a4.011 4.011 0 005.26-.35 4.011 4.011 0 00.35-5.26c-.18-.23-.53-.23-.73-.02l-4.9 4.9zM18 2.01L6 2c-1.11 0-2 .89-2 2v16c0 1.11.89 2 2 2h12c1.11 0 2-.89 2-2V4c0-1.11-.89-1.99-2-1.99zM10 4c.55 0 1 .45 1 1s-.45 1-1 1-1-.45-1-1 .45-1 1-1zM7 4c.55 0 1 .45 1 1s-.45 1-1 1-1-.45-1-1 .45-1 1-1zm5 16c-3.31 0-6-2.69-6-6s2.69-6 6-6 6 2.69 6 6-2.69 6-6 6z"/>
        </g></svg>

<svg width="24" height="24" viewBox="0 0 24 24" fill="none" xmlns="http://www.w3.org/2000/svg">
<path fill-rule="evenodd" clip-rule="evenodd" d="M18 2.01L6 2C4.89 2 4 2.89 4 4V20C4 21.11 4.89 22 6 22H18C19.11 22 20 21.11 20 20V4C20 2.89 19.11 2.01 18 2.01ZM9.55 16.45C9.35 16.65 9.34 17 9.57 17.18C11.14 18.38 13.4 18.26 14.83 16.83C16.26 15.4 16.38 13.14 15.18 11.57C15 11.34 14.65 11.34 14.45 11.55L9.55 16.45ZM11 5C11 4.45 10.55 4 10 4C9.45 4 9 4.45 9 5C9 5.55 9.45 6 10 6C10.55 6 11 5.55 11 5ZM7 4C7.55 4 8 4.45 8 5C8 5.55 7.55 6 7 6C6.45 6 6 5.55 6 5C6 4.45 6.45 4 7 4ZM6 14C6 17.31 8.69 20 12 20C15.31 20 18 17.31 18 14C18 10.69 15.31 8 12 8C8.69 8 6 10.69 6 14Z" fill="black"/>
</svg>
